X: 15762
T: Good For The Tongue
R: hornpipe
M: 4/4
K: Cdorian
K: BbMaj
|:F2|Bcde fBAB|.g.B.a.B .bBAB|GeFd EcDB|.c.d.e.c .B.A.G.F|
Bcde fBAB|.g.B.a.B bBAB|GeFd EcDB|dcBA [D2B2]:|
|:de|fBAB gBAB|babg gfed|g^fgd edeG|c/d/e/c/ B/A/G/F/|
Bcde fBAB|.g.B.a.B .bBAB|GeFd EcDB|dcBA [D2B2]:|

